!!!COM:	Bach, Johann Sebastian
!!!CDT:	1685/02/21/-1750/07/28/
!!!OTL@@DE:	Es woll' uns Gott gen&auml;dig sein
!!!SCT:	BWV 69/6
!!!PC#:	333
!!!AGN:	chorale
**kern	**kern	**kern	**kern
*ICvox	*ICvox	*ICvox	*ICvox
*Ibass	*Itenor	*Ialto	*Isoprn
*I"Bass	*I"Tenor	*I"Alto	*I"Soprano
*>[A,B,B1,B,B2,C]	*>[A,B,B1,B,B2,C]	*>[A,B,B1,B,B2,C]	*>[A,B,B1,B,B2,C]
*>norep[A,B,B2,C]	*>norep[A,B,B2,C]	*>norep[A,B,B2,C]	*>norep[A,B,B2,C]
*>A	*>A	*>A	*>A
*clefF4	*clefGv2	*clefG2	*clefG2
*k[f#c#]	*k[f#c#]	*k[f#c#]	*k[f#c#]
*D:	*D:	*D:	*D:
*M4/4	*M4/4	*M4/4	*M4/4
*met(c)	*met(c)	*met(c)	*met(c)
*MM100	*MM100	*MM100	*MM100
4F#	4A#	4f#	4cc#
=1!|:	=1!|:	=1!|:	=1!|:
*>B	*>B	*>B	*>B
4BB	4B	4f#	4dd
4F#	4A#	8f#L	4cc#
.	.	8eJ	.
4G	4B	4d	4b
4F#	8AnL	4a	8cc#L
.	8BJ	.	8ddJ
=2	=2	=2	=2
4E	4c#	4g	4ee
4D	4d	8f#L	4ff#
.	.	8g#J	.
4C#	8eL	4a	4ee
.	8f#J	.	.
4BB	4g#	4b	4dd
=3	=3	=3	=3
2AA;	2c#;	2e;	2cc#;
4r	4ry	4ry	4r
4AA#	4c#	4f#	4ee
=4	=4	=4	=4
4BB	8BL	4f#	4dd
.	8AnJ	.	.
4E	4G	4e	4cc#
4D	4A	4f#	4dd
4G	8BL	8dL	4b
.	8c#J	8eJ	.
=5	=5	=5	=5
4F#	2.d	2.f#	4a
4B	.	.	8f#L
.	.	.	8gJ
4A	.	.	4a
4AA	4c#	4e	4g
=6	=6	=6	=6
*>B1	*>B1	*>B1	*>B1
2.D;	2.A;	2.d;	2.f#;
4C#	4A#	4e	4cc#
=7:|!	=7:|!	=7:|!	=7:|!
*>B2	*>B2	*>B2	*>B2
2.D;	2.A;	2.d;	2.f#;
[4D	4A	4f#	4a
=8||	=8||	=8||	=8||
*>C	*>C	*>C	*>C
8DL]	4A	4e	4g
8C#J	.	.	.
4D	4A	4d	4f#
4AA	4A	8dL	4e
.	.	8c#J	.
8DL	4A	4d	4f#
8EJ	.	.	.
=9	=9	=9	=9
4F#	4A	4d	4d
4E	4G	8BL	4e
.	.	8c#J	.
4D;	4A;	4d;	4f#;
4C#	4A#	4e	4cc#
=10	=10	=10	=10
4BB	8BL	4f#	4dd
.	8AnJ	.	.
4E	4G	4g	8cc#L
.	.	.	8bJ
8F#L	8dL	4f#	4a
8EJ	8eJ	.	.
8DL	4f#	4f#	8bL
8C#J	.	.	8cc#J
=11	=11	=11	=11
4BB	4f#	8f#L	4.dd
.	.	16g#L	.
.	.	16aJJ	.
4E	4e	4g#	.
.	.	.	8ee
4AA;	4e;	4a;	4cc#;
4D	4d	4a	4ff#
=12	=12	=12	=12
4A	8c#L	4a	8eeL
.	8f#J	.	8ddJ
8AAL	8eL	4a	8cc#L
8BBJ	8dJ	.	8ddJ
8C#L	4c#	4a	4ee
8DJ	.	.	.
8EL	4B	8gL	4b
8DJ	.	8f#J	.
=13	=13	=13	=13
8C#L	4E	8eL	4a
8BBJ	.	8dJ	.
8C#L	4A	4e	4g
8AAJ	.	.	.
4D;	4A;	4d;	4f#;
8AL	4A	4c#	4e
8G#J	.	.	.
=14	=14	=14	=14
4F#	4A	8c#L	4a
.	.	8aJ	.
8EL	8eL	8g#L	4b
8F#J	8dJ	8f#J	.
4Gn	8eL	8eL	8cc#L
.	8dJ	8f#J	8ddJ
4AA#	[4c#	4gn	4ee
=15	=15	=15	=15
8BBL	8c#L]	8f#	4dd
8DJ	8BJ	4b	.
8EL	8gL	.	4cc#
8F#J	16f#L	8a#	.
.	16eJJ	.	.
4BB;	4d;	4f#;	4b;
4GG#	4e	[4b	4dd
=16	=16	=16	=16
4AA	4e	8bL]	4cc#
.	.	[8anJ	.
4BB	4d	8aL]	4b
.	.	[8gnJ	.
4C#	8eL	8gL]	4a
.	8AJ	16f#L	.
.	.	16eJJ	.
8DL	4A	[4d	8f#L
8EJ	.	.	8gJ
=17	=17	=17	=17
8F#L	2.d	8dL]	2a
8GJ	.	8eJ	.
2A	.	4f#	.
.	.	2e	2g
4AA	4c#	.	.
=18	=18	=18	=18
2.D;	2.A;	2.d;	2.f#;
==	==	==	==
*-	*-	*-	*-
!!!hum2abc: -Q ''
!!!title: @{PC#}. @{OTL@@DE}
!!!YOR1: 371 vierstimmige Choralges&auml;nge von Johann Sebastian Bach, 
!!!YOR2: 4th ed. by Alfred D&ouml;rffel (Leipzig: Breitkopf und H&auml;rtel, 
!!!YOR2: c.1875). 178 pp. Plate "V.A.10".  reprint: J.S. Bach, 371 Four-Part 
!!!YOR4: Chorales (New York: Associated Music Publishers, Inc., c.1940).
!!!SMS: B&H, 4th ed, Alfred D&ouml;rffel, c.1875, plate V.A.10
!!!EED:  Craig Stuart Sapp
!!!EEV:  2009/05/22
